X:40
T:M. A. Moon's Q.S.
S:American Veteran Fifer, #40
C:By A.F. Hopkins, National Fife Major
M:6/8
L:1/8
Q:1/8=300
K:D 
%%MIDI program 72
%%MIDI transpose 8
%%MIDI ratio 3 1
A | dzd B2d |  cge fdA | cea gec | dfe a3 |
dzd B2d | cge fdA | (fa) (eg) ce | (df)A d2 :|
|: f | La3 La3 | afa geB | Lg3 Lg3 | gea fdA |
Ld3 Lc3 | Bcd efg | (fa) (eg) ce | (df)A d2 :|
% Note: the "L" symbols are used in Barfly to denote accents.  Not standard abc.

